images/telegram-icon.svg

<svg width="32" height="33" viewBox="0 0 32 33" fill="none" xmlns="http://www.w3.org/2000/svg">
<g id="telegram (1)" clip-path="url(#clip0_391_668)">
<g id="Group">
<path id="Vector" opacity="0.997" fill-rule="evenodd" clip-rule="evenodd" d="M14.5312 0.46875C15.4896 0.46875 16.4479 0.46875 17.4062 0.46875C23.009 1.14924 27.2278 3.92008 30.0625 8.78125C31.1059 10.7482 31.7413 12.8315 31.9688 15.0312C31.9688 15.9896 31.9688 16.9479 31.9688 17.9062C31.2882 23.509 28.5174 27.7278 23.6562 30.5625C21.6893 31.6059 19.606 32.2413 17.4062 32.4688C16.4479 32.4688 15.4896 32.4688 14.5312 32.4688C8.9285 31.7882 4.70976 29.0174 1.875 24.1562C0.831581 22.1893 0.196163 20.106 -0.03125 17.9062C-0.03125 16.9479 -0.03125 15.9896 -0.03125 15.0312C0.649219 9.42856 3.42005 5.20983 8.28125 2.375C10.2482 1.33158 12.3315 0.696163 14.5312 0.46875Z" fill="#039BE5"/>
</g>
<g id="Group_2">
<path id="Vector_2" fill-rule="evenodd" clip-rule="evenodd" d="M22.8437 10.0938C23.6934 10.1224 24.0163 10.5599 23.8125 11.4062C22.9227 15.7301 21.9852 20.0426 21 24.3438C20.6388 24.6978 20.2326 24.7498 19.7812 24.5C18.4542 23.4875 17.1104 22.4979 15.75 21.5312C15.0331 22.1856 14.3352 22.8627 13.6562 23.5625C13.4696 23.6926 13.2612 23.7656 13.0312 23.7812C13.1227 22.4271 13.2164 21.0729 13.3125 19.7188C15.8312 17.471 18.3312 15.2002 20.8125 12.9062C20.8342 12.7548 20.7614 12.6923 20.5937 12.7188C20.4357 12.7352 20.2899 12.7873 20.1562 12.875C17.1562 14.7708 14.1562 16.6667 11.1562 18.5625C11.0521 18.6042 10.9479 18.6042 10.8437 18.5625C9.57293 18.1667 8.30206 17.7708 7.03124 17.375C6.40437 17.1596 6.32106 16.8262 6.78124 16.375C7.14581 16.1841 7.52081 16.0174 7.90624 15.875C12.9039 13.9768 17.8831 12.0497 22.8437 10.0938Z" fill="#FEFEFE"/>
</g>
</g>
<defs>
<clipPath id="clip0_391_668">
<rect width="32" height="32" fill="white" transform="translate(0 0.5)"/>
</clipPath>
</defs>
</svg>

<svg xmlns="http://www.w3.org/2000/svg" width="32" height="33" fill="none"><g clip-path="url(#a)"><path fill="#039BE5" fill-rule="evenodd" d="M14.531.469h2.875c5.603.68 9.822 3.451 12.657 8.312a16.936 16.936 0 0 1 1.906 6.25v2.875c-.68 5.603-3.452 9.822-8.313 12.657a16.935 16.935 0 0 1-6.25 1.906h-2.875c-5.603-.68-9.821-3.452-12.656-8.313a16.933 16.933 0 0 1-1.906-6.25v-2.875C.649 9.43 3.42 5.21 8.28 2.375a16.934 16.934 0 0 1 6.25-1.906Z" clip-rule="evenodd" opacity=".997"/><path fill="#FEFEFE" fill-rule="evenodd" d="M22.844 10.094c.85.028 1.172.466.968 1.312A595.976 595.976 0 0 1 21 24.344c-.361.354-.767.406-1.219.156a147.402 147.402 0 0 0-4.031-2.969 48.111 48.111 0 0 0-2.094 2.032c-.186.13-.395.203-.625.218.092-1.354.185-2.708.281-4.062a576.652 576.652 0 0 0 7.5-6.813c.022-.151-.05-.214-.218-.187a.97.97 0 0 0-.438.156l-9 5.688a.406.406 0 0 1-.312 0L7.03 17.375c-.627-.215-.71-.549-.25-1a9.58 9.58 0 0 1 1.125-.5c4.998-1.898 9.977-3.825 14.938-5.781Z" clip-rule="evenodd"/></g><defs><clipPath id="a"><path fill="#fff" d="M0 .5h32v32H0z"/></clipPath></defs></svg>
